src/status/22/battery-low-charging.svg

<svg width="22" height="22" version="1.1" xmlns="http://www.w3.org/2000/svg">
 <g transform="translate(-1,-1)" fill="#fff">
  <g fill-rule="evenodd" paint-order="stroke fill markers">
   <path d="m4.531 9a0.537 0.537 0 0 0-0.531 0.545v4.91c0 0.303 0.237 0.545 0.531 0.545h3.939a0.537 0.537 0 0 0 0.53-0.545v-0.455h-1.5a1 1 0 0 1-0.832-1.555l2.184-3.275a0.523 0.523 0 0 0-0.383-0.17h-3.939z"/>
   <path d="m4 7c-1.108 0-2 0.892-2 2v6c0 1.108 0.892 2 2 2h13c1.108 0 2-0.892 2-2v-6c0-1.108-0.892-2-2-2zm0 1h13c0.554 0 1 0.446 1 1v6c0 0.554-0.446 1-1 1h-13c-0.554 0-1-0.446-1-1v-6c0-0.554 0.446-1 1-1zm16 2v4a2 2 0 0 0 2-2 2 2 0 0 0-2-2z"/>
  </g>
  <path d="m10.834 8-3.334 5h3l-0.75 3h0.416l3.334-5h-3l0.75-3z"/>
 </g>
</svg>

<svg width="22" height="22" xmlns="http://www.w3.org/2000/svg"><g fill="#fff"><g fill-rule="evenodd" paint-order="stroke fill markers"><path d="M4.531 9A.537.537 0 004 9.545v4.91c0 .303.237.545.531.545H8.47A.537.537 0 009 14.455V14H7.5a1 1 0 01-.832-1.555L8.852 9.17A.523.523 0 008.469 9H4.53z"/><path d="M4 7c-1.108 0-2 .892-2 2v6c0 1.108.892 2 2 2h13c1.108 0 2-.892 2-2V9c0-1.108-.892-2-2-2zm0 1h13c.554 0 1 .446 1 1v6c0 .554-.446 1-1 1H4c-.554 0-1-.446-1-1V9c0-.554.446-1 1-1zM20 10v4a2 2 0 002-2 2 2 0 00-2-2z"/></g><path d="M10.834 8L7.5 13h3l-.75 3h.416l3.334-5h-3l.75-3z"/></g></svg>
